Newaita-dark/devices/64/media-flash-cf.svg

<svg height="64pt" viewBox="0 0 64 64" width="64pt" xmlns="http://www.w3.org/2000/svg" xmlns:xlink="http://www.w3.org/1999/xlink"><linearGradient id="a" gradientUnits="userSpaceOnUse" x1="31.753043" x2="31.753043" y1="55.96441" y2="58.61049775004"><stop offset="0" stop-opacity=".27451"/><stop offset="1" stop-opacity="0"/></linearGradient><linearGradient id="b"><stop offset="0" stop-opacity=".313725"/><stop offset=".222222" stop-opacity=".27451"/><stop offset="1" stop-opacity="0"/></linearGradient><radialGradient id="c" cx="450.90894" cy="189.57936" gradientTransform="matrix(.00000035 -.156265 -.281277 -.0000002 100.953687 127.087208)" gradientUnits="userSpaceOnUse" r="21.166656" xlink:href="#b"/><radialGradient id="d" cx="450.90894" cy="189.57936" gradientTransform="matrix(-.00000035 .156265 .281277 .0000002 -37.447624 -15.158419)" gradientUnits="userSpaceOnUse" r="21.166656" xlink:href="#b"/><radialGradient id="e" cx="450.90894" cy="189.57936" gradientTransform="matrix(-.00000035 -.156265 .281277 -.0000002 -37.447624 127.087208)" gradientUnits="userSpaceOnUse" r="21.166656" xlink:href="#b"/><radialGradient id="f" cx="450.90894" cy="189.57936" gradientTransform="matrix(.00000035 .156265 -.281277 .0000002 100.953683 -15.15842)" gradientUnits="userSpaceOnUse" r="21.166656" xlink:href="#b"/><linearGradient id="g" gradientUnits="userSpaceOnUse" x1="31.753048" x2="31.753048" y1="56.067868" y2="5.79220824996"><stop offset="0" stop-color="#424242"/><stop offset="1" stop-color="#616161"/></linearGradient><linearGradient id="h" gradientUnits="userSpaceOnUse" x1="31.753048" x2="31.753048" y1="56.067868" y2="5.79220824996"><stop offset="0" stop-color="#bdbdbd"/><stop offset="1" stop-color="#e0e0e0"/></linearGradient><linearGradient id="i" gradientUnits="userSpaceOnUse" x1="26.46087375004" x2="26.46087375004" y1="56.067868" y2="5.79220824996"><stop offset="0" stop-color="#f44336"/><stop offset="1" stop-color="#ef5350"/></linearGradient><linearGradient id="j" gradientUnits="userSpaceOnUse" x1="31.753048" x2="31.753048" y1="56.067868" y2="5.79220824996"><stop offset="0" stop-color="#ffca28"/><stop offset="1" stop-color="#ffd54f"/></linearGradient><path d="m15.214844 56.011719h33.078125v2.703125h-33.078125zm0 0" fill="url(#a)"/><path d="m48.292969 55.964844h5.289062v-2.648438h-5.289062zm0 0" fill="url(#c)"/><path d="m15.214844 55.964844h-5.292969v2.644531h5.292969zm0 0" fill="url(#d)"/><path d="m15.214844 55.964844h-5.292969v-2.648438h5.292969zm0 0" fill="url(#e)"/><path d="m48.292969 55.964844h5.289062v2.644531h-5.289062zm0 0" fill="url(#f)"/><path d="m13.230469 5.792969h37.046875c1.460937 0 2.644531 1.183593 2.644531 2.644531v44.984375c0 1.460937-1.183594 2.644531-2.644531 2.644531h-37.046875c-1.460938 0-2.644531-1.183594-2.644531-2.644531v-44.984375c0-1.460938 1.183593-2.644531 2.644531-2.644531zm0 0" fill="url(#g)"/><path d="m31.753906 8.449219c-.699218 0-1.371094.277343-1.863281.773437l-.550781.550782h-13.464844c-1.453125 0-2.632812 1.179687-2.632812 2.632812v37.046875c0 1.453125 1.179687 2.632813 2.632812 2.632813h13.464844l.550781.550781c.492187.496093 1.164063.773437 1.863281.773437h15.875c1.453125 0 2.632813-1.179687 2.632813-2.632812v-39.691406c0-1.457032-1.179688-2.636719-2.632813-2.636719zm0 0" fill="url(#h)"/><path d="m19.84375 9.761719h9.261719v42.335937h-9.261719zm0 0" fill="url(#i)"/><path d="m15.875 9.773438c-1.453125 0-2.632812 1.179687-2.632812 2.632812v37.046875c0 1.453125 1.179687 2.632813 2.632812 2.632813h3.96875v-42.3125zm0 0" fill="url(#j)"/><g fill="none" stroke="#212121" stroke-linecap="round" stroke-linejoin="round"><path d="m254.006994-147.412704c-5.593216 0-10.967703 2.218538-14.904827 6.186909l-4.405829 4.405829h-107.708465c-11.62389 0-21.060489 9.436599-21.060489 21.060489v296.3467c0 11.62389 9.436599 21.060489 21.060489 21.060489h107.708465l4.405829 4.405829c3.937124 3.968371 9.311611 6.18691 14.904827 6.18691h126.987873c11.62389 0 21.060489-9.436599 21.060489-21.060489v-317.50093c0-11.655137-9.436599-21.091736-21.060489-21.091736zm0 0" stroke-width="3" transform="matrix(.125012 0 0 .125012 0 26.877566)"/><path d="m158.734842-136.913707h74.086675v338.65516h-74.086675zm0 0" stroke-width="3" transform="matrix(.125012 0 0 .125012 0 26.877566)"/><path d="m479.954173 295.483597c-43.932813 0-79.598699 35.665886-79.598699 79.598699v1120.050535c0 43.932813 35.665886 79.598699 79.598699 79.598699h119.988543v-1279.247933zm0 0" stroke-width="11.338583" transform="scale(.0330761)"/></g><path d="m13.230469 5.792969c-1.464844 0-2.644531 1.179687-2.644531 2.644531v.664062c0-1.46875 1.179687-2.648437 2.644531-2.648437h37.046875c1.464844 0 2.644531 1.179687 2.644531 2.648437v-.664062c0-1.464844-1.179687-2.644531-2.644531-2.644531zm0 0" fill="#fff" fill-opacity=".313725"/><path d="m10.585938 52.429688v.992187c0 1.464844 1.179687 2.644531 2.644531 2.644531h37.046875c1.464844 0 2.644531-1.179687 2.644531-2.644531v-.992187c0 1.464843-1.179687 2.644531-2.644531 2.644531h-37.046875c-1.464844 0-2.644531-1.179688-2.644531-2.644531zm0 0" fill-opacity=".235294"/><path d="m105.833643-168.660675h296.346701c11.686384 0 21.15423 9.467846 21.15423 21.15423v359.840637c0 11.686384-9.467846 21.154229-21.15423 21.154229h-296.346701c-11.686384 0-21.154229-9.467845-21.154229-21.154229v-359.840637c0-11.686384 9.467845-21.15423 21.154229-21.15423zm0 0" fill="none" stroke="#212121" stroke-linecap="round" stroke-linejoin="round" stroke-width="3" transform="matrix(.125012 0 0 .125012 0 26.877566)"/></svg>

<?xml version="1.0" encoding="UTF-8"?>
<svg xmlns="http://www.w3.org/2000/svg" xmlns:xlink="http://www.w3.org/1999/xlink" width="64pt" height="64pt" viewBox="0 0 64 64" version="1.1">
<defs>
<linearGradient id="linear0" gradientUnits="userSpaceOnUse" x1="254" y1="233.5" x2="254" y2="254.66667" gradientTransform="matrix(0.125012,0,0,0.125012,-0.00000500048,26.774108)">
<stop offset="0" style="stop-color:rgb(0%,0%,0%);stop-opacity:0.27451;"/>
<stop offset="1" style="stop-color:rgb(0%,0%,0%);stop-opacity:0;"/>
</linearGradient>
<radialGradient id="radial0" gradientUnits="userSpaceOnUse" cx="450.90894" cy="189.57936" fx="450.90894" fy="189.57936" r="21.166656" gradientTransform="matrix(0.000000348341,-0.156265,-0.281277,-0.000000203077,100.953687,127.087208)">
<stop offset="0" style="stop-color:rgb(0%,0%,0%);stop-opacity:0.313725;"/>
<stop offset="0.222222" style="stop-color:rgb(0%,0%,0%);stop-opacity:0.27451;"/>
<stop offset="1" style="stop-color:rgb(0%,0%,0%);stop-opacity:0;"/>
</radialGradient>
<radialGradient id="radial1" gradientUnits="userSpaceOnUse" cx="450.90894" cy="189.57936" fx="450.90894" fy="189.57936" r="21.166656" gradientTransform="matrix(-0.000000348341,0.156265,0.281277,0.000000203077,-37.447624,-15.158419)">
<stop offset="0" style="stop-color:rgb(0%,0%,0%);stop-opacity:0.313725;"/>
<stop offset="0.222222" style="stop-color:rgb(0%,0%,0%);stop-opacity:0.27451;"/>
<stop offset="1" style="stop-color:rgb(0%,0%,0%);stop-opacity:0;"/>
</radialGradient>
<radialGradient id="radial2" gradientUnits="userSpaceOnUse" cx="450.90894" cy="189.57936" fx="450.90894" fy="189.57936" r="21.166656" gradientTransform="matrix(-0.000000348341,-0.156265,0.281277,-0.000000203077,-37.447624,127.087208)">
<stop offset="0" style="stop-color:rgb(0%,0%,0%);stop-opacity:0.313725;"/>
<stop offset="0.222222" style="stop-color:rgb(0%,0%,0%);stop-opacity:0.27451;"/>
<stop offset="1" style="stop-color:rgb(0%,0%,0%);stop-opacity:0;"/>
</radialGradient>
<radialGradient id="radial3" gradientUnits="userSpaceOnUse" cx="450.90894" cy="189.57936" fx="450.90894" fy="189.57936" r="21.166656" gradientTransform="matrix(0.000000348341,0.156265,-0.281277,0.000000203077,100.953683,-15.15842)">
<stop offset="0" style="stop-color:rgb(0%,0%,0%);stop-opacity:0.313725;"/>
<stop offset="0.222222" style="stop-color:rgb(0%,0%,0%);stop-opacity:0.27451;"/>
<stop offset="1" style="stop-color:rgb(0%,0%,0%);stop-opacity:0;"/>
</radialGradient>
<linearGradient id="linear1" gradientUnits="userSpaceOnUse" x1="254" y1="233.5" x2="254" y2="-168.66667" gradientTransform="matrix(0.125012,0,0,0.125012,0,26.877566)">
<stop offset="0" style="stop-color:rgb(25.882353%,25.882353%,25.882353%);stop-opacity:1;"/>
<stop offset="1" style="stop-color:rgb(38.039216%,38.039216%,38.039216%);stop-opacity:1;"/>
</linearGradient>
<linearGradient id="linear2" gradientUnits="userSpaceOnUse" x1="254" y1="233.5" x2="254" y2="-168.66667" gradientTransform="matrix(0.125012,0,0,0.125012,0,26.877566)">
<stop offset="0" style="stop-color:rgb(74.117647%,74.117647%,74.117647%);stop-opacity:1;"/>
<stop offset="1" style="stop-color:rgb(87.843137%,87.843137%,87.843137%);stop-opacity:1;"/>
</linearGradient>
<linearGradient id="linear3" gradientUnits="userSpaceOnUse" x1="211.66667" y1="233.5" x2="211.66667" y2="-168.66667" gradientTransform="matrix(0.125012,0,0,0.125012,0,26.877566)">
<stop offset="0" style="stop-color:rgb(95.686275%,26.27451%,21.176471%);stop-opacity:1;"/>
<stop offset="1" style="stop-color:rgb(93.72549%,32.54902%,31.372549%);stop-opacity:1;"/>
</linearGradient>
<linearGradient id="linear4" gradientUnits="userSpaceOnUse" x1="254" y1="233.5" x2="254" y2="-168.66667" gradientTransform="matrix(0.125012,0,0,0.125012,0,26.877566)">
<stop offset="0" style="stop-color:rgb(100%,79.215686%,15.686275%);stop-opacity:1;"/>
<stop offset="1" style="stop-color:rgb(100%,83.529412%,30.980392%);stop-opacity:1;"/>
</linearGradient>
</defs>
<g id="surface1">
<path style=" stroke:none;fill-rule:nonzero;fill:url(#linear0);" d="M 15.214844 56.011719 L 48.292969 56.011719 L 48.292969 58.714844 L 15.214844 58.714844 Z M 15.214844 56.011719 "/>
<path style=" stroke:none;fill-rule:nonzero;fill:url(#radial0);" d="M 48.292969 55.964844 L 53.582031 55.964844 L 53.582031 53.316406 L 48.292969 53.316406 Z M 48.292969 55.964844 "/>
<path style=" stroke:none;fill-rule:nonzero;fill:url(#radial1);" d="M 15.214844 55.964844 L 9.921875 55.964844 L 9.921875 58.609375 L 15.214844 58.609375 Z M 15.214844 55.964844 "/>
<path style=" stroke:none;fill-rule:nonzero;fill:url(#radial2);" d="M 15.214844 55.964844 L 9.921875 55.964844 L 9.921875 53.316406 L 15.214844 53.316406 Z M 15.214844 55.964844 "/>
<path style=" stroke:none;fill-rule:nonzero;fill:url(#radial3);" d="M 48.292969 55.964844 L 53.582031 55.964844 L 53.582031 58.609375 L 48.292969 58.609375 Z M 48.292969 55.964844 "/>
<path style=" stroke:none;fill-rule:nonzero;fill:url(#linear1);" d="M 13.230469 5.792969 L 50.277344 5.792969 C 51.738281 5.792969 52.921875 6.976562 52.921875 8.4375 L 52.921875 53.421875 C 52.921875 54.882812 51.738281 56.066406 50.277344 56.066406 L 13.230469 56.066406 C 11.769531 56.066406 10.585938 54.882812 10.585938 53.421875 L 10.585938 8.4375 C 10.585938 6.976562 11.769531 5.792969 13.230469 5.792969 Z M 13.230469 5.792969 "/>
<path style=" stroke:none;fill-rule:nonzero;fill:url(#linear2);" d="M 31.753906 8.449219 C 31.054688 8.449219 30.382812 8.726562 29.890625 9.222656 L 29.339844 9.773438 L 15.875 9.773438 C 14.421875 9.773438 13.242188 10.953125 13.242188 12.40625 L 13.242188 49.453125 C 13.242188 50.90625 14.421875 52.085938 15.875 52.085938 L 29.339844 52.085938 L 29.890625 52.636719 C 30.382812 53.132812 31.054688 53.410156 31.753906 53.410156 L 47.628906 53.410156 C 49.082031 53.410156 50.261719 52.230469 50.261719 50.777344 L 50.261719 11.085938 C 50.261719 9.628906 49.082031 8.449219 47.628906 8.449219 Z M 31.753906 8.449219 "/>
<path style=" stroke:none;fill-rule:nonzero;fill:url(#linear3);" d="M 19.84375 9.761719 L 29.105469 9.761719 L 29.105469 52.097656 L 19.84375 52.097656 Z M 19.84375 9.761719 "/>
<path style=" stroke:none;fill-rule:nonzero;fill:url(#linear4);" d="M 15.875 9.773438 C 14.421875 9.773438 13.242188 10.953125 13.242188 12.40625 L 13.242188 49.453125 C 13.242188 50.90625 14.421875 52.085938 15.875 52.085938 L 19.84375 52.085938 L 19.84375 9.773438 Z M 15.875 9.773438 "/>
<path style="fill:none;stroke-width:3;stroke-linecap:round;stroke-linejoin:round;stroke:rgb(12.941176%,12.941176%,12.941176%);stroke-opacity:1;stroke-miterlimit:4;" d="M 254.006994 -147.412704 C 248.413778 -147.412704 243.039291 -145.194166 239.102167 -141.225795 L 234.696338 -136.819966 L 126.987873 -136.819966 C 115.363983 -136.819966 105.927384 -127.383367 105.927384 -115.759477 L 105.927384 180.587223 C 105.927384 192.211113 115.363983 201.647712 126.987873 201.647712 L 234.696338 201.647712 L 239.102167 206.053541 C 243.039291 210.021912 248.413778 212.240451 254.006994 212.240451 L 380.994867 212.240451 C 392.618757 212.240451 402.055356 202.803852 402.055356 191.179962 L 402.055356 -126.320968 C 402.055356 -137.976105 392.618757 -147.412704 380.994867 -147.412704 Z M 254.006994 -147.412704 " transform="matrix(0.125012,0,0,0.125012,0,26.877566)"/>
<path style="fill:none;stroke-width:3;stroke-linecap:round;stroke-linejoin:round;stroke:rgb(12.941176%,12.941176%,12.941176%);stroke-opacity:1;stroke-miterlimit:4;" d="M 158.734842 -136.913707 L 232.821517 -136.913707 L 232.821517 201.741453 L 158.734842 201.741453 Z M 158.734842 -136.913707 " transform="matrix(0.125012,0,0,0.125012,0,26.877566)"/>
<path style="fill:none;stroke-width:11.338583;stroke-linecap:round;stroke-linejoin:round;stroke:rgb(12.941176%,12.941176%,12.941176%);stroke-opacity:1;stroke-miterlimit:4;" d="M 479.954173 295.483597 C 436.02136 295.483597 400.355474 331.149483 400.355474 375.082296 L 400.355474 1495.132831 C 400.355474 1539.065644 436.02136 1574.73153 479.954173 1574.73153 L 599.942716 1574.73153 L 599.942716 295.483597 Z M 479.954173 295.483597 " transform="matrix(0.0330761,0,0,0.0330761,0,0)"/>
<path style=" stroke:none;fill-rule:nonzero;fill:rgb(100%,100%,100%);fill-opacity:0.313725;" d="M 13.230469 5.792969 C 11.765625 5.792969 10.585938 6.972656 10.585938 8.4375 L 10.585938 9.101562 C 10.585938 7.632812 11.765625 6.453125 13.230469 6.453125 L 50.277344 6.453125 C 51.742188 6.453125 52.921875 7.632812 52.921875 9.101562 L 52.921875 8.4375 C 52.921875 6.972656 51.742188 5.792969 50.277344 5.792969 Z M 13.230469 5.792969 "/>
<path style=" stroke:none;fill-rule:nonzero;fill:rgb(0%,0%,0%);fill-opacity:0.235294;" d="M 10.585938 52.429688 L 10.585938 53.421875 C 10.585938 54.886719 11.765625 56.066406 13.230469 56.066406 L 50.277344 56.066406 C 51.742188 56.066406 52.921875 54.886719 52.921875 53.421875 L 52.921875 52.429688 C 52.921875 53.894531 51.742188 55.074219 50.277344 55.074219 L 13.230469 55.074219 C 11.765625 55.074219 10.585938 53.894531 10.585938 52.429688 Z M 10.585938 52.429688 "/>
<path style="fill:none;stroke-width:3;stroke-linecap:round;stroke-linejoin:round;stroke:rgb(12.941176%,12.941176%,12.941176%);stroke-opacity:1;stroke-miterlimit:4;" d="M 105.833643 -168.660675 L 402.180344 -168.660675 C 413.866728 -168.660675 423.334574 -159.192829 423.334574 -147.506445 L 423.334574 212.334192 C 423.334574 224.020576 413.866728 233.488421 402.180344 233.488421 L 105.833643 233.488421 C 94.147259 233.488421 84.679414 224.020576 84.679414 212.334192 L 84.679414 -147.506445 C 84.679414 -159.192829 94.147259 -168.660675 105.833643 -168.660675 Z M 105.833643 -168.660675 " transform="matrix(0.125012,0,0,0.125012,0,26.877566)"/>
</g>
</svg>
